material/.icons/material/deathly-hallows.svg

<svg xmlns="http://www.w3.org/2000/svg" viewBox="0 0 24 24"><path d="M12 2L1 21h22L12 2m.75 9.47c1.81.4 2.95 2.2 2.55 4.03-.3 1.25-1.3 2.25-2.55 2.53v-6.56M11.25 18c-1.81-.4-2.95-2.2-2.55-4 .3-1.28 1.3-2.28 2.55-2.56V18m5.63-3.28A4.874 4.874 0 0012.75 10V6.29L20.4 19.5h-7.33c2.22-.5 3.8-2.47 3.81-4.75v-.03m-5.63-8.43V10c-2.65.4-4.48 2.88-4.07 5.54.32 1.96 1.79 3.58 3.75 4.01H3.6l7.65-13.26z"/></svg>

<?xml version="1.0" encoding="UTF-8"?><!DOCTYPE svg PUBLIC "-//W3C//DTD SVG 1.1//EN" "http://www.w3.org/Graphics/SVG/1.1/DTD/svg11.dtd"><svg xmlns="http://www.w3.org/2000/svg" xmlns:xlink="http://www.w3.org/1999/xlink" version="1.1" id="mdi-deathly-hallows" width="24" height="24" viewBox="0 0 24 24"><path d="M12,2L1,21H23L12,2M12.75,11.47C14.56,11.87 15.7,13.67 15.3,15.5C15,16.75 14,17.75 12.75,18.03V11.47M11.25,18C9.44,17.6 8.3,15.8 8.7,14C9,12.72 10,11.72 11.25,11.44V18M16.88,14.72C16.83,12.35 15.09,10.36 12.75,10V6.29L20.4,19.5H13.07C15.29,19 16.87,17.03 16.88,14.75V14.72M11.25,6.29V10C8.6,10.4 6.77,12.88 7.18,15.54C7.5,17.5 8.97,19.12 10.93,19.55H3.6L11.25,6.29Z" /></svg>
